X:49
T:The convenience
R:Reel
O:Ireland
S:Gill Pearson
S:Richard Robinson's web page/abc file
Z:Transcription, modifications, chords:Mike Long
M:C|
L:1/8
K:D
"D"dABA dABA|"A/G"GAFA "G/A"EADA|"D"dABA dABA|"A"FA"(G)"EA "D"D2 D2:|
|:"D"df~f2 dfed|"A"cAce "(G)"gece|"D"df~f2 dfed\
|[1 "A"cA"(G)"Bc "D"d2 d2 :|
[2 "A"cA"(G)"Bc "D"defg|]\
"D"aAgA fAeA|"A"Ae~e2 Ae~e2|\
"D"aAgA "G"fAeA|
"A"Addc "D"defg|\
"D"aA~A2 aA~A2|"A"gA~A2 gA~A2|\
"D"f2af "G"gbag|"A"fdec "D"d4|]
